X:233
T:Old Simon The King. (p)1679.PLFD.233
M:9/4
L:1/4
Q:3/4=90
S:Playford, Dancing Master,6th Ed.,1679
O:England
N:What a lovely tune.
H:1679.
Z:Chris Partington.
K:C
G|A>Bcc>dcc2G|A>Bcc>def2f|
AFFF2GA>Bc|d2cB2AG2:|
|:a|g2fe2dc2a|g>af/g/e>fd/e/cde|
fFFA/B/c/B/A/G/A2D|gGGB/c/d/c/B/A/B2:|
|:G|A/B/cE(cG)Ec2G|A/B/cEcGEc2G|
A/B/cG(cA)FA2F|B/c/dGe/f/gdB2:|
|:z|e>fg/a/gedc>de/c/|e>fg/a/gecf>ga/f/|
abc'cAFABc|d>ef/d/B>ABG>AB/G/:|
